material/.icons/material/format-align-bottom.svg

<svg xmlns="http://www.w3.org/2000/svg" viewBox="0 0 24 24"><path d="M13 9l2.5-2.5 1.42 1.42L12 12.84 7.08 7.92 8.5 6.5 11 9V3h2v6M3 15h18v2H3v-2m0 4h10v2H3v-2z"/></svg>

<?xml version="1.0" encoding="UTF-8"?><!DOCTYPE svg PUBLIC "-//W3C//DTD SVG 1.1//EN" "http://www.w3.org/Graphics/SVG/1.1/DTD/svg11.dtd"><svg xmlns="http://www.w3.org/2000/svg" xmlns:xlink="http://www.w3.org/1999/xlink" version="1.1" id="mdi-format-align-bottom" width="24" height="24" viewBox="0 0 24 24"><path d="M13,9L15.5,6.5L16.92,7.92L12,12.84L7.08,7.92L8.5,6.5L11,9V3H13V9M3,15H21V17H3V15M3,19H13V21H3V19Z" /></svg>
